X:185
T:Have a Drink with Me
M:6/8
L:1/8
Q:120
C:Vincent Broderick
R:Jig (Key of G)
K:Gmaj
"G"BAG E2D | EGD EGA | BAG E2D | "D"EAA AGA | "G"BAG E2D | EGD EGA | BAG E2D | "D"EGG "G"G3 :|:
"G"GBd e2d | dgd B2A | GBd e2d | "D"eaa aga | "Em"bag agf | "D"gfe dBA | "G"BAG E2D |1 "D"EGG "G"G3 :|2 "D"EGG "G"G2A|]
